src/topics/icons/game-analytics.svg

<svg height="187" preserveAspectRatio="xMidYMid" viewBox="0 0 256 187" width="256" xmlns="http://www.w3.org/2000/svg"><path d="m121.474 45.3190339c5.002-9.665 8.723-21.757 11.188-36.22899996-58.339-22.91000004-129.115-5.092-132.662 83.11299996.947 81.9010001 66.864 111.8840001 139.855 83.3800001l35.962-126.0020001 34.631 131.3300001c15.912 2.698 31.174 2.986 45.552 0l-55.942-179.01300006c-16.693-2.53-31.966-2.53-45.818 0l-23.709 74.32199996c7.959 2.397 17.192 3.257 25.307 4.795h-68.995c-2.206 12.485-2.056 24.2490001 0 35.4300001h30.902l-8.792 27.704c-36.495 9.49-62.468-3.796-62.867-52.7450001 1.165-46.618 26.023-63.613 75.388-46.085" fill="#2c3345"/></svg>

<?xml version="1.0" encoding="UTF-8"?>
<svg width="256px" height="187px" viewBox="0 0 256 187" version="1.1" xmlns="http://www.w3.org/2000/svg" xmlns:xlink="http://www.w3.org/1999/xlink" preserveAspectRatio="xMidYMid">
    <g>
        <path d="M121.474,45.3190339 C126.476,35.6540339 130.197,23.5620339 132.662,9.09003394 C74.323,-13.8199661 3.547,3.99803394 0,92.2030339 C0.947,174.104034 66.864,204.087034 139.855,175.583034 L175.817,49.5810339 L210.448,180.911034 C226.36,183.609034 241.622,183.897034 256,180.911034 L200.058,1.89803394 C183.365,-0.63196606 168.092,-0.63196606 154.24,1.89803394 L130.531,76.2200339 C138.49,78.6170339 147.723,79.4770339 155.838,81.0150339 L86.843,81.0150339 C84.637,93.5000339 84.787,105.264034 86.843,116.445034 L117.745,116.445034 L108.953,144.149034 C72.458,153.639034 46.485,140.353034 46.086,91.4040339 C47.251,44.7860339 72.109,27.7910339 121.474,45.3190339" fill="#2C3345"></path>
    </g>
</svg>
